X:89
T:The Forwards Polka 
R:polka
C: 1999, 2010 L.E. McCullough 
M:2/4
L:1/8
K:Ador
d|:eA AB|AG ED|~E3F|~G3A|BA (3Bcd|eaed|(3Bcd gf|~e3d|
eA AB|AG ED|~E3F|~G3A|BA (3Bcd|eaed|(3Bcd BG|~A3d:|
|:ea ed|e~A3|ea ba|~g3a|ba gb|ag fg|eg (3BAG|~A3d|
ea ed|e~A3|ea ba|~g3a|b~g3|(3agf ga|eg (3BAG|~A3d:|
<end>
<start>
